X:17
T:The F-Bomb
C:Sarah Gowan & Bill Quern
C:August 2012
M:C|
L:1/8
K:D
"D7"fe dB A2A2|Bd2 Bd2d2|fe dBA2A2|BAB2"C"=c2c2|
"D7"fe dB A2A2|Bd2 Bd2d2|"F"=F2F2=cBA2|"G"Bd2 Bd4:|
|:"D"fa2fa4|b2a2 fed2|"Bm7"edef edef|edB2 A4|
"Am7"fa2fa4|b2a2 fed2|"F"=fedf edBA|"G"Bd2 Bd4:|
W: © 2012 Sarah Gowan & Bill Quern  |  www.sarahgowan.com  |  All rights reserved.
